X:227
T:Bully In The Alley
M:C|
L:1/8
Q:1/4=150
K:G
D2|\
G2G2 G2G2|BBdd B2G2|(c3B/A/) (B3A/G/)|AAAG E2GD|
G2G2 G2G2|BBdd B2G2|DDDD E2F2|G6||
